X:1
T:A Sailor and his True Love
M:6/8
L:1/8
K:F
 c| F2 FA-G F| D2- E F2 D| C2 CC-D E| F3- F2 c| d2 d d2 f| d2 d c2 d|\
 B2 BA-G F| c3- c2 c| ddd d2 f| d2 dc-d c| B2 BA-G F| c3- c2 C| F2 FA-G F|\
 D2 E F2 D| C2 C CDE| F3- F2||
